!! 00000] TT[WS
!!!OTL: Zhenzhu daojun lian
!!!ARE: Asia, China, Shanxi Hequ
!! Ethnic Group: Han
!! WI, 258
!!!SCT: J0304
!!!YEM: Copyright 1995, estate of Helmut Schaffrath.
**kern
*ICvox
*Ivox
*M2/4
*k[b-]
*F:
{4dd
4dd
=1
8ee
8ff
8cc
8ee
=2
[2dd
=3
2dd]}
=4
{4.ff
8dd
=5
4cc
8a
8cc
=6
8.dd
16ff
8b-
8a
=7
[2g
=8
2g]}
=9
{8a
8cc
8a
8cc
=10
8dd
8ff
8dd
8cc
=11
4a
8cc
8a
=12
8g
8a
8cc
8e
=13
[2d
=14
2d]}
=15
{4.g
8d
=16
8g
8d
8g
8cc
=17
8.a
16g
8f
8d
=18
[2g
=19
2g]}
=20
{8a
8cc
8a
8cc
=21
8dd
8ff
8dd
8cc
=22
4a
8.cc
16a
=23
8g
8a
8cc
8e
=24
[2d
=25
2d]}
=26
{4.g
8d
=27
8g
8d
8g
8cc
=28
8a
8g
8f
8d
=29
[2g
=30
2g]}
==
!!!AGN: Xiaodiao. XÅshi, Sichun
!!!ONB: ESAC (Essen Associative Code) Database: CHINA
!!!AMT: simple duple
!!!AIN: vox
!!!EED: Helmut Schaffrath
!!!EEV: 1.0
*-
!!!ONB: Tied note syntax fixed by Craig Sapp, 2004/05/03/
